X:1
T:Violin Caprice No. 3 in E Minor
T:Violin Caprice No. 3 in E Minor
T:Op. 1, No. 3
T:Niccolò Paganini
C:Niccolò Paganini
%%score ( 1 2 3 )
L:1/8
Q:1/4=70
M:4/4
K:G
V:1 treble nm="Violin" snm="Vln."
V:2 treble 
V:3 treble 
V:1
"^Sostenuto"!f!"^sul G e D" [Ee]4 [Ff]2 [Gg]2 | TB6 z2 | [Gg]4 [Aa]2 [Bb]2 | Td6 z2 | %4
 ([cc']2 [Bb]/!>![Aa]/[Gg]/!>![Ff]/ [Ee]/!>![^D^d]/[Cc]/!>![B,B]/ [A,A])[cc'] | %5
 ([Bb]2 [Aa]/!>![Gg]/[Ff]/!>![Ee]/ [=D=d]/!>![Cc]/[B,B]/!>![A,A]/ [G,G])[Bb] | %6
 ([Aa]2 [Gg]/!>![Ff]/[Ee]/!>![^D^d]/ [Gg]2 [Ff]/!>![Ee]/[Cc]/!>![^A,^A]/) |{/[^A,^A]} TB6 z2 | %8
 [ee']4 [ff']2 [gg']2 | Tb6 z2 | [gg']4 [aa']2 [bb']2 | Td'6 z2 | ([^d^d']4 [c'c'']4 | %13
 [bb']2) ([ee']2- [ee'][=f=f']/[ee']/ (5:4:5[ff']/[gg']/[aa']/[bb']/[c'c'']/) | %14
({/[c'c'']} e'4{/[gg']} T^f'4 | [ee']4) z2"^sul G e D" ([^G,^G]2 | %16
 [A,A]/[B,B]/[Cc]/[Dd]/ [Ee]/[Ff]/[^G^g]/[Aa]/) Tb4 | %17
 [cc']2 [A,A]2- (3([A,A][cc'])([Bb] (3[cc'][Aa][=F=f]) | e4{/[Gg]} Tf4 | e4!p! Tc'4 | Ta4 Tb4 | %21
 Te4!pp! Tc4 | TA4 TB4 | !fermata!TE6 z2 |:[K:E][M:3/8][Q:1/4=160]"^Presto"!mf! (E/G/B/e/g/e/ | %25
 ^A/B/^a/b/^^f/=a/ | g/d/^f/e/^B/d/ | c/G/B/A/^E/F/ | D/F/=C/B,/D/F/ | A/=c/B/d/f/g/) | %30
 (b/a/^e/f/d/=c/ | ^A/c/B/G/D/E/ | g/f/d/c/^B/a/ | ^^f/g/d/e/^B/c/ | f/e/c/=B/^A/g/ | %35
 ^e/f/^^c/d/^A/B/) | (g/=e/b/g/f/).D/ | (e/c/g/e/d/).B,/ | (!>!E/B/G/F/!>!^E/c/ | %39
 ^A/G/!>!F/d/B/A/ | !>!G/e/c/B/!>!^A/f/ | d/c/!>!B/b/^a/=a/ | f/=g/b/g/=d/B/ | =G/B/F/B/^E/b/ | %44
 f/d/F/D/=E/C/) | .B,/(b/^a/b/^^g/a/ | ^^f/^g/^e/^f/d/=e/ | ^^c/d/^B/^c/^A/=B/ | ^^F/G/^F/D/E/C/) | %49
 B,B z :| (B,/D/F/B/d/B/ | f/d/b/f/d/B/) | (B,/=D/F/B/=d/B/ | f/=d/b/f/d/B/ | =c/=c'/B/c'/A/c'/ | %55
 =G/=c'/=F/c'/E/c'/ | =D/E/D/B,/=C/A,/ | =G,/!>!=d'/c'/d'/b/=g/ | e/!>!=c'/b/c'/a/f/ | %59
 ^d/!>!b/^a/b/=g/e/ | c/!>!=a/^g/a/=f/=d/ | B/!>!=g/f/g/=f/d/ | =c/e/B/e/A/e/ | =G/e/=F/e/E/e/ | %64
 A/=c/=G/c/=F/c/ | E/=c/=D/c/=C/c/ | =F/!>!=f/e/f/=c/A/ | ^F/!>!_e/=d/e/=c/A/ | %68
 =G/!>!=g/f/g/=d/B/ | ^G/!>!=f/e/f/=d/B/ | A/e/c/A/=f/=d/ | A/=g/e/A/a/=f/ | =G/=d/B/G/e/=c/ | %73
 =G/=f/=d/G/=g/_e/ | =F/=c/A/F/=d/_B/ | =F/_e/=c/A/_E/=C/ | _B,/=D/=F/_B/=d/B/ | %77
 =E/=F/e/=f/^c/_e/ | =d/A/=c/_B/^F/A/ | =G/=D/=F/_E/=C/_B,/ | A,/=C/_E/_G/=F/A/ | %81
 =c/_e/_g/=f/a/=c'/ | _e'/=c'/a/=f/_g/_e/ | ^c/_e/=d/A/=c/_B/ | ^F/A/=G/=B/=d/=c/ | %85
 ^G/_B/A/^c/_e/=d/ | A/=c/_B/_a/=f/=d/ | _b/=g/_e/_B/=G/_E/ | _b/_g/_e/_B/_G/_E/ | =b/^f/d/B/F/D/ | %90
 B,/B/^A/B/=A/F/ | E/G/B/e/g/e/ | ^A/B/^a/b/^^f/=a/ | g/d/^f/e/^B/d/ | c/^A/=G/E/C/B,/ | %95
 ^A,/C/E/=G/^B/c/ | e/=g/^a/c'/a/e'/ | c'/=g'/e'/c'/^a/c'/ | b/e'/d'/e'/^^c'/e'/ | %99
 ^b/^c'/^a/=b/g/=a/ | ^^f/g/^e/^f/d/=e/ | ^A/c/B/G/=A/F/) || %102
[K:G][M:4/4]!f![Q:1/4=70]"^Sostenuto""^sul G e D" [Ee]4 [Ff]2 [Gg]2 | TB6 z2 | [Ff]4 [Aa]2 [Gg]2 | %105
 Te6 z2 | [ee']4 [ff']2 [gg']2 | ([aa']2 [Aa]2 (6:4:6[c'c''][bb'][d'd''][c'c''][aa'][=f=f']) | %108
 e'4 Tb4 | Te6 z2 |!p! Tb4 TB4 | TE6 !fermata!z2 |] %112
V:2
 x8 | TB,6 x2 | x8 | x8 | x8 | x8 | x8 | x8 | x8 | x8 | x8 | x8 | x8 | x8 | x8 | x8 | x8 | x8 | %18
 x8 | x8 | x8 | x8 | x8 | x8 |:[K:E][M:3/8] x3 | x3 | x3 | x3 | x3 | x3 | x3 | x3 | x3 | x3 | x3 | %35
 x3 | x3 | x3 | x3 | x3 | x3 | x3 | x3 | x3 | x3 | x3 | x3 | x3 | x3 | x3 :| x3 | x3 | x3 | x3 | %54
 x3 | x3 | x3 | x3 | x3 | x3 | x3 | x3 | x3 | x3 | x3 | x3 | x3 | x3 | x3 | x3 | x3 | x3 | x3 | %73
 x3 | x3 | x3 | x3 | x3 | x3 | x3 | x3 | x3 | x3 | x3 | x3 | x3 | x3 | x3 | x3 | x3 | x3 | x3 | %92
 x3 | x3 | x3 | x3 | x3 | x3 | x3 | x3 | x3 | x3 ||[K:G][M:4/4] x8 | TB,6 x2 | x8 | x8 | x8 | x8 | %108
 x8 | x8 | x8 | x8 |] %112
V:3
 x8 | x8 | x8 | TD6 x2 | x8 | x8 | x8 | TB,6 x2 | x8 | TB6 x2 | x8 | Td6 x2 | x8 | x8 | e4 T^f4 | %15
 x8 | x4 TB4 | x8 | E4 TF4 | E4 Tc4 | TA4 TB4 | Te4 TC4 | TA,4 TB,4 | TE6 x2 |:[K:E][M:3/8] x3 | %25
 x3 | x3 | x3 | x3 | x3 | x3 | x3 | x3 | x3 | x3 | x3 | x3 | x3 | x3 | x3 | x3 | x3 | x3 | x3 | %44
 x3 | x3 | x3 | x3 | x3 | x B x :| x3 | x3 | x3 | x3 | x3 | x3 | x3 | x3 | x3 | x3 | x3 | x3 | x3 | %63
 x3 | x3 | x3 | x3 | x3 | x3 | x3 | x3 | x3 | x3 | x3 | x3 | x3 | x3 | x3 | x3 | x3 | x3 | x3 | %82
 x3 | x3 | x3 | x3 | x3 | x3 | x3 | x3 | x3 | x3 | x3 | x3 | x3 | x3 | x3 | x3 | x3 | x3 | x3 | %101
 x3 ||[K:G][M:4/4] x8 | x8 | x8 | TE6 x2 | x8 | x8 | e4 TB4 | Te6 x2 | TB4 TB,4 | TE6 x2 |] %112

